packages/icons/icons/cc-off.svg

<svg xmlns="http://www.w3.org/2000/svg" viewBox="0 0 24 24" fill="#fff"><path d="m16.5 13.5 1.2 1.2c.2-.2.3-.4.3-.7v-1h-1.5v.5zM10 13h-.5v.5h-2v-3L6.3 9.3c-.2.2-.3.4-.3.7v4c0 .3.1.5.3.7.2.2.4.3.7.3h3c.3 0 .5-.1.7-.3.2-.2.3-.4.3-.7l-1-1zM14.5 11.5v-1h2v.5H18v-1c0-.3-.1-.5-.3-.7-.2-.2-.4-.3-.7-.3h-3c-.3 0-.5.1-.7.3-.2.2-.3.4-.3.7l1.5 1.5z"/><path d="M20.4 4.6C20 4.2 19.5 4 19 4H5c-.5 0-1 .2-1.4.6C3.2 5 3 5.4 3 6v12c0 .6.2 1 .6 1.4.4.4.9.6 1.4.6h14c.5 0 1-.2 1.4-.6.4-.4.6-.9.6-1.4V6c0-.5-.2-1-.6-1.4zm-.9.9v12.8L6.7 5.5h12.8zm-15 13V5.8l12.7 12.7H4.5z"/></svg>

<?xml version="1.0" encoding="utf-8"?>
<!-- Generator: Adobe Illustrator 27.0.1, SVG Export Plug-In . SVG Version: 6.00 Build 0)  -->
<svg version="1.1" id="Layer_1" xmlns="http://www.w3.org/2000/svg" xmlns:xlink="http://www.w3.org/1999/xlink" x="0px" y="0px"
	 viewBox="0 0 24 24" style="enable-background:new 0 0 24 24;" xml:space="preserve">
<style type="text/css">
	.st0{display:none;fill:#FFFFFF;}
	.st1{fill:#FFFFFF;}
</style>
<path class="st0" d="M12,3.7L9.9,5.8L12,7.9 M4.3,2.7L3,4l4.7,4.7H3v6h4l5,5V13l4.2,4.3c-0.7,0.5-1.4,0.9-2.2,1.2v2.1
	c1.4-0.3,2.6-1,3.7-1.8l2,2l1.3-1.3l-9-9 M19,11.7c0,0.9-0.2,1.8-0.5,2.6l1.5,1.5c0.7-1.2,1-2.6,1-4.1c0-4.3-3-7.9-7-8.8V5
	C16.9,5.9,19,8.6,19,11.7 M16.5,11.7c0-1.8-1-3.3-2.5-4v2.2l2.5,2.4C16.5,12.2,16.5,11.9,16.5,11.7z"/>
<g>
	<path class="st1" d="M16.5,13.5l1.2,1.2c0.2-0.2,0.3-0.4,0.3-0.7v-1h-1.5V13.5z"/>
	<path class="st1" d="M10,13H9.5v0.5h-2v-3h0L6.3,9.3C6.1,9.5,6,9.7,6,10v4c0,0.3,0.1,0.5,0.3,0.7C6.5,14.9,6.7,15,7,15h3
		c0.3,0,0.5-0.1,0.7-0.3c0.2-0.2,0.3-0.4,0.3-0.7v0L10,13z"/>
	<path class="st1" d="M14.5,11.5v-1h2V11H18v-1c0-0.3-0.1-0.5-0.3-0.7C17.5,9.1,17.3,9,17,9h-3c-0.3,0-0.5,0.1-0.7,0.3
		C13.1,9.5,13,9.7,13,10L14.5,11.5z"/>
	<path class="st1" d="M20.4,4.6C20,4.2,19.5,4,19,4H5C4.5,4,4,4.2,3.6,4.6C3.2,5,3,5.4,3,6v12c0,0.6,0.2,1,0.6,1.4
		C4,19.8,4.5,20,5,20h14c0.5,0,1-0.2,1.4-0.6C20.8,19,21,18.5,21,18V6C21,5.5,20.8,5,20.4,4.6z M19.5,5.5v12.8L6.7,5.5H19.5z
		 M4.5,18.5V5.8l12.7,12.7H4.5z"/>
</g>
</svg>
